icons/Instagram.svg

<svg width="24" height="24" viewBox="0 0 24 24" fill="none" xmlns="http://www.w3.org/2000/svg">
<rect opacity="0.01" width="24" height="24" fill="white"/>
<path fill-rule="evenodd" clip-rule="evenodd" d="M20.4 5.7001V18.3438C20.4 18.898 20.1958 19.3793 19.7875 19.7876C19.3791 20.1959 18.8833 20.4001 18.3 20.4001H5.69998C5.11664 20.4001 4.62081 20.1959 4.21248 19.7876C3.80414 19.3793 3.59998 18.898 3.59998 18.3438V5.7001C3.59998 5.11676 3.80414 4.62093 4.21248 4.2126C4.62081 3.80426 5.11664 3.6001 5.69998 3.6001H18.3C18.8833 3.6001 19.3791 3.80426 19.7875 4.2126C20.1958 4.62093 20.4 5.11676 20.4 5.7001ZM14.45 9.5501C13.7791 8.85009 12.9625 8.5001 12 8.5001C11.0375 8.5001 10.2135 8.8428 9.5281 9.52822C8.84268 10.2136 8.49998 11.0376 8.49998 12.0001C8.49998 12.9626 8.84268 13.7866 9.5281 14.472C10.2135 15.1574 11.0375 15.5001 12 15.5001C12.9625 15.5001 13.7864 15.1574 14.4718 14.472C15.1573 13.7866 15.5 12.9626 15.5 12.0001C15.5 11.0376 15.15 10.2209 14.45 9.5501ZM19 7.8001V5.7001C19 5.23343 18.7666 5.0001 18.3 5.0001H16.2C15.7333 5.0001 15.5 5.23343 15.5 5.7001V7.8001C15.5 8.26677 15.7333 8.5001 16.2 8.5001H18.3C18.7666 8.5001 19 8.26677 19 7.8001ZM18.3437 19.0001C18.7812 19.0001 19 18.7668 19 18.3001V10.6001H16.725C16.8416 10.9793 16.9 11.4459 16.9 12.0001C16.9 13.3709 16.4333 14.523 15.5 15.4563C14.5375 16.4189 13.3708 16.9001 12 16.9001C10.6583 16.9001 9.50623 16.4189 8.54373 15.4563C7.58122 14.4938 7.09998 13.3418 7.09998 12.0001C7.09998 11.5626 7.17289 11.0959 7.31873 10.6001H4.99998V18.3001C4.99998 18.5043 5.07289 18.672 5.21873 18.8032C5.36456 18.9345 5.53956 19.0001 5.74373 19.0001H18.3437Z" fill="#ffffff"/>
</svg>

<svg width="24" height="24" fill="none" xmlns="http://www.w3.org/2000/svg"><path opacity=".01" fill="#fff" d="M0 0h24v24H0z"/><path fill-rule="evenodd" clip-rule="evenodd" d="M20.4 5.7v12.644c0 .554-.204 1.035-.612 1.444a2.025 2.025 0 01-1.488.612H5.7c-.583 0-1.08-.204-1.488-.612-.408-.409-.612-.89-.612-1.444V5.7c0-.583.204-1.08.612-1.487A2.025 2.025 0 015.7 3.6h12.6c.583 0 1.08.204 1.488.613.408.408.612.904.612 1.487zm-5.95 3.85c-.67-.7-1.487-1.05-2.45-1.05-.963 0-1.787.343-2.472 1.028C8.843 10.214 8.5 11.038 8.5 12c0 .963.343 1.787 1.028 2.472S11.038 15.5 12 15.5c.963 0 1.786-.343 2.472-1.028.685-.685 1.028-1.51 1.028-2.472s-.35-1.78-1.05-2.45zM19 7.8V5.7c0-.467-.233-.7-.7-.7h-2.1c-.467 0-.7.233-.7.7v2.1c0 .467.233.7.7.7h2.1c.467 0 .7-.233.7-.7zM18.344 19c.437 0 .656-.233.656-.7v-7.7h-2.275c.117.38.175.846.175 1.4 0 1.37-.467 2.523-1.4 3.456-.963.963-2.13 1.444-3.5 1.444-1.342 0-2.494-.481-3.456-1.444C7.58 14.494 7.1 13.342 7.1 12c0-.437.073-.904.219-1.4H5v7.7c0 .204.073.372.219.503.146.131.32.197.525.197h12.6z" fill="#fff"/></svg>
